Numix-GalliumOS/22/devices/audio-input-microphone.svg

<?xml version="1.0" encoding="UTF-8" standalone="no"?>
<svg
   xmlns:dc="http://purl.org/dc/elements/1.1/"
   xmlns:cc="http://creativecommons.org/ns#"
   xmlns:rdf="http://www.w3.org/1999/02/22-rdf-syntax-ns#"
   xmlns:svg="http://www.w3.org/2000/svg"
   xmlns="http://www.w3.org/2000/svg"
   xmlns:sodipodi="http://sodipodi.sourceforge.net/DTD/sodipodi-0.dtd"
   xmlns:inkscape="http://www.inkscape.org/namespaces/inkscape"
   viewBox="0 0 22 22"
   id="svg2"
   version="1.1"
   inkscape:version="0.91 r"
   sodipodi:docname="stock_mic.svg"
   width="22"
   height="22">
  <metadata
     id="metadata26">
    <rdf:RDF>
      <cc:Work
         rdf:about="">
        <dc:format>image/svg+xml</dc:format>
        <dc:type
           rdf:resource="http://purl.org/dc/dcmitype/StillImage" />
        <dc:title />
      </cc:Work>
    </rdf:RDF>
  </metadata>
  <defs
     id="defs24" />
  <sodipodi:namedview
     pagecolor="#ffffff"
     bordercolor="#666666"
     borderopacity="1"
     objecttolerance="10"
     gridtolerance="10"
     guidetolerance="10"
     inkscape:pageopacity="0"
     inkscape:pageshadow="2"
     inkscape:window-width="1920"
     inkscape:window-height="1056"
     id="namedview22"
     showgrid="true"
     inkscape:zoom="31.999999"
     inkscape:cx="10.225256"
     inkscape:cy="4.8539767"
     inkscape:window-x="0"
     inkscape:window-y="24"
     inkscape:window-maximized="1"
     inkscape:current-layer="svg2"
     showguides="false">
    <inkscape:grid
       type="xygrid"
       id="grid4165" />
  </sodipodi:namedview>
  <rect
     style="opacity:1;fill:#d6d6d6;fill-opacity:1;fill-rule:nonzero;stroke:none;stroke-width:0.1;stroke-linecap:butt;stroke-linejoin:miter;stroke-miterlimit:4;stroke-dasharray:none;stroke-dashoffset:0;stroke-opacity:1"
     id="rect4167"
     width="8"
     height="14"
     x="6.9999981"
     y="1"
     rx="4.5"
     ry="4.5" />
  <path
     style="opacity:1;fill:#373737;fill-opacity:1;fill-rule:nonzero;stroke:none;stroke-width:2;stroke-linecap:round;stroke-linejoin:miter;stroke-miterlimit:4;stroke-dasharray:none;stroke-dashoffset:0;stroke-opacity:1"
     inkscape:transform-center-x="-0.0044651198"
     inkscape:transform-center-y="0.1653812"
     d="M 7.0000001,11.002571 5.2500001,12 5.2633931,11 Z"
     id="path4171"
     inkscape:connector-curvature="0"
     sodipodi:nodetypes="cccc" />
  <path
     sodipodi:nodetypes="cccc"
     inkscape:connector-curvature="0"
     id="path4175"
     d="M 15,11.002571 16.75,12 16.736607,11 Z"
     inkscape:transform-center-y="0.1653812"
     inkscape:transform-center-x="0.0044651198"
     style="opacity:1;fill:#373737;fill-opacity:1;fill-rule:nonzero;stroke:none;stroke-width:2;stroke-linecap:round;stroke-linejoin:miter;stroke-miterlimit:4;stroke-dasharray:none;stroke-dashoffset:0;stroke-opacity:1" />
  <path
     style="color:#000000;font-style:normal;font-variant:normal;font-weight:normal;font-stretch:normal;font-size:medium;line-height:normal;font-family:sans-serif;text-indent:0;text-align:start;text-decoration:none;text-decoration-line:none;text-decoration-style:solid;text-decoration-color:#000000;letter-spacing:normal;word-spacing:normal;text-transform:none;direction:ltr;block-progression:tb;writing-mode:lr-tb;baseline-shift:baseline;text-anchor:start;white-space:normal;clip-rule:nonzero;display:inline;overflow:visible;visibility:visible;opacity:1;isolation:auto;mix-blend-mode:normal;color-interpolation:sRGB;color-interpolation-filters:linearRGB;solid-color:#000000;solid-opacity:1;fill:#547181;fill-opacity:1;fill-rule:nonzero;stroke:none;stroke-width:2;stroke-linecap:round;stroke-linejoin:miter;stroke-miterlimit:4;stroke-dasharray:none;stroke-dashoffset:0;stroke-opacity:1;color-rendering:auto;image-rendering:auto;shape-rendering:auto;text-rendering:auto;enable-background:accumulate"
     d="m 5.2767843,10.706473 a 0.57148573,0.57148573 0 0 0 -0.5625,0.579241 c 0,2.244865 1.198841,4.321752 3.142857,5.444197 1.944016,1.122445 4.3416977,1.122445 6.2857137,0 1.944016,-1.122445 3.142857,-3.199332 3.142857,-5.444197 a 0.57148573,0.57148573 0 1 0 -1.142857,0 c 0,1.838418 -0.979431,3.535046 -2.571428,4.454242 -1.591997,0.919194 -3.550861,0.919194 -5.1428577,0 -1.591996,-0.919196 -2.571428,-2.615824 -2.571428,-4.454242 a 0.57148573,0.57148573 0 0 0 -0.580357,-0.579241 z"
     id="path4169"
     inkscape:connector-curvature="0" />
  <path
     style="fill:#547181;fill-opacity:1;fill-rule:evenodd;stroke:none;stroke-width:1px;stroke-linecap:butt;stroke-linejoin:miter;stroke-opacity:1"
     d="M 10.42857,17.457142 C 10.207885,19.112188 8.9345683,20.144675 7.5714273,21 l 6.8571417,0 c -1.363141,-0.855325 -2.636457,-1.887812 -2.857142,-3.542858 z"
     id="path4176"
     inkscape:connector-curvature="0"
     sodipodi:nodetypes="ccccc" />
  <path
     style="opacity:1;fill:#547181;fill-opacity:1;fill-rule:nonzero;stroke:none;stroke-width:0.1;stroke-linecap:butt;stroke-linejoin:miter;stroke-miterlimit:4;stroke-dasharray:none;stroke-dashoffset:0;stroke-opacity:1"
     d="m 7.0000001,10.5 c 0,2.493 1.784,4.5 3.9999999,4.5 2.216,0 4,-2.007 4,-4.5 l -7.9999999,0 z"
     id="rect4183"
     inkscape:connector-curvature="0" />
  <path
     style="opacity:1;fill:#373737;fill-opacity:1;fill-rule:nonzero;stroke:none;stroke-width:2;stroke-linecap:round;stroke-linejoin:miter;stroke-miterlimit:4;stroke-dasharray:none;stroke-dashoffset:0;stroke-opacity:1"
     d="m 7.0000001,10 0,0.5 c 0,0.171586 0.02846,0.333514 0.044922,0.5 l 7.910156,0 C 14.97154,10.833514 15,10.671586 15,10.5 L 15,10 7.0000001,10 Z"
     id="rect4181"
     inkscape:connector-curvature="0" />
  <path
     style="opacity:1;fill:#828282;fill-opacity:1;fill-rule:nonzero;stroke:none;stroke-width:1.5;stroke-linecap:round;stroke-linejoin:miter;stroke-miterlimit:4;stroke-dasharray:none;stroke-dashoffset:0;stroke-opacity:1"
     d="M 13,5 C 12.446,5 12,5.223 12,5.5 12,5.777 12.446,6 13,6 l 2,0 0,-1 -2,0 z"
     id="rect4193"
     inkscape:connector-curvature="0" />
  <path
     style="opacity:1;fill:#828282;fill-opacity:1;fill-rule:nonzero;stroke:none;stroke-width:1.5;stroke-linecap:round;stroke-linejoin:miter;stroke-miterlimit:4;stroke-dasharray:none;stroke-dashoffset:0;stroke-opacity:1"
     d="M 13,7 C 12.446,7 12,7.223 12,7.5 12,7.777 12.446,8 13,8 l 2,0 0,-1 -2,0 z"
     id="rect4195"
     inkscape:connector-curvature="0" />
  <path
     style="opacity:0.2;fill:#ffffff;fill-opacity:1;fill-rule:nonzero;stroke:none;stroke-width:0.1;stroke-linecap:butt;stroke-linejoin:miter;stroke-miterlimit:4;stroke-dasharray:none;stroke-dashoffset:0;stroke-opacity:1"
     d="m 12,1.1582031 0,13.6835939 c 0.791829,-0.228979 1.479072,-0.718588 2,-1.388672 L 14,2.546875 C 13.479072,1.8767909 12.791829,1.3871818 12,1.1582031 Z"
     id="rect4211"
     inkscape:connector-curvature="0" />
  <path
     style="opacity:0.2;fill:#ffffff;fill-opacity:1;fill-rule:nonzero;stroke:none;stroke-width:0.1;stroke-linecap:butt;stroke-linejoin:miter;stroke-miterlimit:4;stroke-dasharray:none;stroke-dashoffset:0;stroke-opacity:1"
     d="m 14,15.453125 c -0.138984,0.100027 -0.277538,0.200388 -0.427734,0.287109 C 13.07716,16.026101 12.544002,16.212253 12,16.320312 l 0,1.16211 c 0.691809,-0.111475 1.367456,-0.337576 2,-0.681641 l 0,-1.347656 z"
     id="path4166"
     inkscape:connector-curvature="0" />
  <path
     style="opacity:0.2;fill:#ffffff;fill-opacity:1;fill-rule:nonzero;stroke:none;stroke-width:0.1;stroke-linecap:butt;stroke-linejoin:miter;stroke-miterlimit:4;stroke-dasharray:none;stroke-dashoffset:0;stroke-opacity:1"
     d="M 12,18.722656 12,21 l 2,0 0,-0.294922 C 13.190187,20.158833 12.450491,19.5353 12,18.722656 Z"
     id="path4184"
     inkscape:connector-curvature="0" />
  <path
     style="opacity:1;fill:#828282;fill-opacity:1;fill-rule:nonzero;stroke:none;stroke-width:1.5;stroke-linecap:round;stroke-linejoin:miter;stroke-miterlimit:4;stroke-dasharray:none;stroke-dashoffset:0;stroke-opacity:1"
     d="m 7.0000001,7 0,1 2,0 C 9.5540001,8 10,7.777 10,7.5 10,7.223 9.5540001,7 9.0000001,7 l -2,0 z"
     id="rect4189"
     inkscape:connector-curvature="0" />
  <path
     style="opacity:1;fill:#828282;fill-opacity:1;fill-rule:nonzero;stroke:none;stroke-width:1.5;stroke-linecap:round;stroke-linejoin:miter;stroke-miterlimit:4;stroke-dasharray:none;stroke-dashoffset:0;stroke-opacity:1"
     d="m 7.0000001,5 0,1 2,0 C 9.5540001,6 10,5.777 10,5.5 10,5.223 9.5540001,5 9.0000001,5 l -2,0 z"
     id="rect4191"
     inkscape:connector-curvature="0" />
</svg>

<svg xmlns="http://www.w3.org/2000/svg" viewBox="0 0 22 22">
 <rect width="8" height="14" x="7" y="1" rx="4" ry="4.5" style="fill:#d6d6d6;opacity:1;fill-opacity:1;stroke:none;fill-rule:nonzero"/>
 <path d="m 7 11 -1.75 0.997 0.013 -1" style="fill:#373737;opacity:1;fill-opacity:1;stroke:none;fill-rule:nonzero"/>
 <path d="m 15 11 1.75 0.997 -0.013 -1" style="fill:#373737;opacity:1;fill-opacity:1;stroke:none;fill-rule:nonzero"/>
 <path d="m 5.277 10.706 a 0.571 0.571 0 0 0 -0.563 0.579 c 0 2.245 1.199 4.322 3.143 5.444 1.944 1.122 4.342 1.122 6.286 0 1.944 -1.122 3.143 -3.199 3.143 -5.444 a 0.571 0.571 0 1 0 -1.143 0 c 0 1.838 -0.979 3.535 -2.571 4.454 -1.592 0.919 -3.551 0.919 -5.143 0 -1.592 -0.919 -2.571 -2.616 -2.571 -4.454 a 0.571 0.571 0 0 0 -0.58 -0.579 z" mix-blend-mode="normal" isolation="auto" white-space="normal" solid-opacity="1" solid-color="#000000" style="visibility:visible;shape-rendering:auto;color-interpolation-filters:linearRGB;fill:#547181;opacity:1;image-rendering:auto;fill-opacity:1;stroke:none;display:inline;color:#000;fill-rule:nonzero;color-rendering:auto;color-interpolation:sRGB"/>
 <path d="m 10.429 17.457 c -0.221 1.655 -1.494 2.688 -2.857 3.543 l 6.857 0 c -1.363 -0.855 -2.636 -1.888 -2.857 -3.543 z" style="fill:#547181;fill-opacity:1;stroke:none;fill-rule:evenodd"/>
 <path d="m 7 10.5 c 0 2.493 1.784 4.5 4 4.5 2.216 0 4 -2.01 4 -4.5 l -8 0 z" style="fill:#547181;opacity:1;fill-opacity:1;stroke:none;fill-rule:nonzero"/>
 <path d="m 7 10 0 0.5 c 0 0.172 0.028 0.334 0.045 0.5 l 7.91 0 c 0.016 -0.166 0.045 -0.328 0.045 -0.5 l 0 -0.5 -8 0" style="fill:#373737;opacity:1;fill-opacity:1;stroke:none;fill-rule:nonzero"/>
 <path d="M 13,5 C 12.446,5 12,5.223 12,5.5 12,5.777 12.446,6 13,6 l 2,0 0,-1 -2,0 z" style="fill:#828282;opacity:1;fill-opacity:1;stroke:none;fill-rule:nonzero"/>
 <path d="M 13,7 C 12.446,7 12,7.223 12,7.5 12,7.777 12.446,8 13,8 l 2,0 0,-1 -2,0 z" style="fill:#828282;opacity:1;fill-opacity:1;stroke:none;fill-rule:nonzero"/>
 <path d="m 12 1.158 0 13.684 c 0.792 -0.229 1.479 -0.719 2 -1.389 l 0 -10.906 c -0.521 -0.67 -1.208 -1.16 -2 -1.389" style="fill:#fff;opacity:0.2;fill-opacity:1;stroke:none;fill-rule:nonzero"/>
 <path d="m 14 15.453 c -0.139 0.1 -0.278 0.2 -0.428 0.287 c -0.495 0.286 -1.028 0.472 -1.572 0.58 l 0 1.162 c 0.692 -0.111 1.367 -0.338 2 -0.682 l 0 -1.348 z" style="fill:#fff;opacity:0.2;fill-opacity:1;stroke:none;fill-rule:nonzero"/>
 <path d="m 12 18.723 0 2.277 l 2 0 0 -0.295 c -0.81 -0.546 -1.55 -1.17 -2 -1.982" style="fill:#fff;opacity:0.2;fill-opacity:1;stroke:none;fill-rule:nonzero"/>
 <path d="m 7 7 0 1 2 0 c 0.554 0 1 -0.223 1 -0.5 0 -0.277 -0.446 -0.5 -1 -0.5 l -2 0 z" style="fill:#828282;opacity:1;fill-opacity:1;stroke:none;fill-rule:nonzero"/>
 <path d="m 7 5 0 1 2 0 c 0.554 0 1 -0.223 1 -0.5 0 -0.277 -0.446 -0.5 -1 -0.5 l -2 0 z" style="fill:#828282;opacity:1;fill-opacity:1;stroke:none;fill-rule:nonzero"/>
</svg>
